static/assets/svg/human/humanClothes/glasses/glasses1.svg

<svg class="glasses" width="86" height="380" viewBox="202.715 584.407 86.593 380.048" xmlns="http://www.w3.org/2000/svg"><path class="lines" d="M268.128 623.121H252.52l-2.18-13.627h19.969zm-28.632 0H223.89l-2.181-13.627h19.967zm45.226-9.867l-.306-2.239-12.653-3.934h-22.881l.201 1.374.022.146h-6.193l.02-.146.202-1.374H220.252l.001.014-12.602 3.786-.216 1.067-.115 1.306 13.397-3 1.918 13.027.151 1.04H240.602l.151-1.04 1.791-12.173h6.93l1.791 12.173.151 1.04h17.815l.151-1.04 1.916-13.04 13.424 3.013" fill="#711725"/><path class="irises" d="M221.202 608.275c.109 1.975 1.124 4.925 1.124 7.838 0 2.282.943 3.83.943 6.135 0 2.304.303 1.344 3.913 1.606 2.707 0 4.148-.062 6.505-.062 2.8 0 3.667-.228 6.289-.228 0-2.779.386-2.862.723-5.065.361-2.368.622-4.836 1.054-7.331 0-2.95.281-1.41.281-2.669-3.48 0-8.112-.167-10.938-.167-2.298 0-3.221.109-6.522.109-1.851 0-2.857-.057-3.342-.057l-.03-.109zM270.885 609.902c-.243.075-.742 2.993-1.18 5.984-.346 2.366-.139 1.178-.782 4.802-.598 3.374-1.168 2.462-3.587 2.615a228.03 228.03 0 0 1-6.486.078c-2.532 0-3.696.077-6.067.077 0-2.882-1.036-4.689-1.036-6.995 0-2.11-1.243-7.017-1.598-8.514 1.728-.063 2.185-.016 4.259-.133h7.388c2.08 0 2.453.09 4.86.09 2.173 0 2.276-.245 4.443-.078l-.214 2.074z" fill="#c4ff01" fill-opacity=".7"/></svg>

<svg id="glasses1" class="glasses" width="86" height="380" viewBox="202.715 584.407 86.5933 380.048" preserveAspectRatio="xMidYMid meet" xmlns="http://www.w3.org/2000/svg"> <defs id="svgEditorDefs"> <path class="lines" id="svgEditorClosePathDefs" fill="black" style="stroke-width: 0px; stroke: none;"/> </defs> <path class="lines" id="path2248" style="fill: rgb(113, 23, 37); fill-opacity: 1; fill-rule: nonzero; stroke: none; stroke-width: 0;" d="M 268.128 623.121 L 252.52 623.121 L 250.34 609.494 L 270.309 609.494 Z M 239.496 623.121 L 223.89 623.121 L 221.709 609.494 L 241.676 609.494 Z M 284.722 613.254 L 284.416 611.015 L 271.763 607.081 L 271.763 607.081 L 271.751 607.081 L 271.74 607.081 L 271.738 607.081 L 270.309 607.081 L 261.59 607.081 L 259.053 607.081 L 250.338 607.081 L 248.882 607.081 L 249.083 608.455 L 249.105 608.601 L 242.912 608.601 L 242.932 608.455 L 243.134 607.081 L 241.678 607.081 L 232.961 607.081 L 230.425 607.081 L 221.709 607.081 L 220.305 607.081 L 220.302 607.081 L 220.291 607.081 L 220.252 607.081 L 220.253 607.095 L 207.651 610.881 L 207.435 611.948 L 207.32 613.254 L 220.717 610.254 L 222.635 623.281 L 222.786 624.321 L 223.888 624.321 L 230.425 624.321 L 232.961 624.321 L 239.496 624.321 L 240.602 624.321 L 240.753 623.281 L 242.544 611.108 L 249.474 611.108 L 251.265 623.281 L 251.416 624.321 L 252.519 624.321 L 259.053 624.321 L 261.59 624.321 L 268.128 624.321 L 269.231 624.321 L 269.382 623.281 L 271.298 610.241 L 284.722 613.254"/> <path class="irises" d="M 221.202 608.275 C 221.311 610.25 222.326 613.2 222.326 616.113 C 222.326 618.395 223.269 619.943 223.269 622.248 C 223.269 624.552 223.572 623.592 227.182 623.854 C 229.889 623.854 231.33 623.792 233.687 623.792 C 236.487 623.792 237.354 623.564 239.976 623.564 C 239.976 620.785 240.362 620.702 240.699 618.499 C 241.06 616.131 241.321 613.663 241.753 611.168 C 241.753 608.218 242.034 609.758 242.034 608.499 C 238.554 608.499 233.922 608.332 231.096 608.332 C 228.798 608.332 227.875 608.441 224.574 608.441 C 222.723 608.441 221.717 608.384 221.232 608.384 L 221.202 608.275 Z" style="stroke: black; fill: rgb(196, 255, 1); fill-opacity: 0.7; stroke-width: 0;"/> <path class="irises" d="M 250.363 621.326 C 250.606 621.251 251.105 618.333 251.543 615.342 C 251.889 612.976 251.682 614.164 252.325 610.54 C 252.923 607.166 253.493 608.078 255.912 607.925 C 258.879 607.854 260.268 607.847 262.398 607.847 C 264.93 607.847 266.094 607.77 268.465 607.77 C 268.465 610.652 269.501 612.459 269.501 614.765 C 269.501 616.876 270.744 621.782 271.099 623.279 C 269.371 623.342 268.914 623.295 266.84 623.412 C 263.695 623.412 262.006 623.412 259.452 623.412 C 257.372 623.412 256.999 623.322 254.592 623.322 C 252.419 623.322 252.316 623.567 250.149 623.4 L 250.363 621.326 Z" style="stroke: black; fill: rgb(196, 255, 1); fill-opacity: 0.7; stroke-width: 0;" transform="matrix(-1, 0, 0, -1, 521.247977, 1231.22828)"/></svg>
